X: 082
T: The Waves of Tory
C: Trad. arr. Bert Murray
R: march, reel
B: Bert Murray's "Bon Accord Collection" 1999 p.8
%
Z: 2011 John Chambers <jc:trillian.mit.edu>
N: The repeat notation for the 1st part is odd; rewritten as a 4-times repeat.
M: C
L: 1/8
K: G
|::: uBc |\
d2Bd c2Ac | B2G2 GFGB | A2F2 FEFG | A2G2 G2 :::| z2
|:\
vG2Bd g2g2 | f2e2 e4 | F2Ac f2f2 | e2d2 d4 |
 G2Bd g2g2 | f2e2 e2g2 | (f2a2) e2f2 | g4 g4 :|

%%sep 2 1 500

